!!!!SEGMENT: Any1004c-Missa_Queramus_cum_pastoribus-Credo--Cambrai_3.krn
!!!id: Any1004c
!!!SMS: Cambrai 3
!!!AGN: Mass; Credo
!!!voices: 4
!!!OPR: Missa Queramus cum pastoribus (Cambrai 3)
!!!COM: Anonymous
!!!OTL: Credo
**kern	**kern	**kern	**kern
*part4	*part3	*part2	*part1
*staff4	*staff3	*staff2	*staff1
*I"Bassus	*I"Tenor	*I"Altus	*I"Superius
*I'B	*I'T	*I'A	*I'S
*clefF4	*clefGv2	*clefGv2	*clefG2
*k[b-]	*k[b-]	*k[b-]	*k[b-]
*F:	*F:	*F:	*F:
*M2/1	*M2/1	*M2/1	*M2/1
*met(C|)	*met(C|)	*met(C|)	*met(C|)
=1	=1	=1	=1
!!section: Patrem
!!!OMD: Patrem
0r	0r	0f	0f
=2	=2	=2	=2
0r	0r	1f	1a
.	.	1c	1g
=3	=3	=3	=3
0r	0r	1.f	2.a
.	.	.	4b-y
.	.	.	2cc
.	.	2f	[2dd
=4	=4	=4	=4
0r	0r	1e	4dd]
.	.	.	4cc
.	.	.	1cc
.	.	1d	.
.	.	.	2bnXi
=5	=5	=5	=5
0F	0F	1c	0cc
.	.	2r	.
.	.	2c	.
=6	=6	=6	=6
1F	1A	2c	0r
.	.	2d	.
1C	1G	1e	.
=7	=7	=7	=7
1.F	2.A	1f	0r
.	4B-y	.	.
.	2c	1r	.
2F	[2d	.	.
=8	=8	=8	=8
1E	2d]	0r	2r
.	1c	.	2cc
1D	.	.	2dd
.	2BnXi	.	2dd
=9	=9	=9	=9
1C	1c	2r	1ee
.	.	2c	.
1r	1r	2d	2ff
.	.	2d	2ff
=10	=10	=10	=10
0r	1r	2e	4ee
.	.	.	4dd
.	.	2e	4cc
.	.	.	4b-y
.	2r	1f	4a
.	.	.	4g
.	2F	.	[2cc
=11	=11	=11	=11
1r	2G	1d	4cc]
.	.	.	8bnXiL
.	.	.	8aJ
.	2G	.	2bni
2r	1A	1c	4cc
.	.	.	4b-y
2C	.	.	4a
.	.	.	4g
=12	=12	=12	=12
2D	2B-y	0r	4f
.	.	.	4e
2D	1A	.	4f
.	.	.	4g
2F	.	.	1a
2F	4G	.	.
.	4F	.	.
=13	=13	=13	=13
2E	2G	1.g	1r
2E	1c	.	.
[1C	.	.	[1cc
.	4B-y	2g	.
.	4A	.	.
=14	=14	=14	=14
1C]	1G	2g	2cc]
.	.	2g	2cc
1r	1A	1c	2cc
.	.	.	2cc
=15	=15	=15	=15
0r	0r	2r	1f
.	.	2.f	.
.	.	.	2r
.	.	4e	.
.	.	4d	[2b-y
.	.	4c	.
=16	=16	=16	=16
0r	0r	2d	4b-]
.	.	.	4a
.	.	2e	4g
.	.	.	4f
.	.	1c	2g
.	.	.	[2a
=17	=17	=17	=17
0r	0r	1f	2a]
.	.	.	1cc
.	.	2e	.
.	.	2c	2cc
=18	=18	=18	=18
0r	1r	2d	2b-y
.	.	2.c	2a
.	[1c	.	2g
.	.	4B-y	.
.	.	4A	[2a
.	.	4G	.
=19	=19	=19	=19
0r	2c]	2F	2a]
.	2c	1f	4g
.	.	.	4f
.	1c	.	1g
.	.	2e	.
=20	=20	=20	=20
1.c	1F	1f	1f
.	2r	1r	1r
2c	[2F	.	.
=21	=21	=21	=21
1c	4F]	0r	0r
.	4G	.	.
.	4A	.	.
.	4B-y	.	.
1F	2c	.	.
.	2c	.	.
=22	=22	=22	=22
2.B-y	4d	0r	0r
.	4c	.	.
.	4d	.	.
4B-y	4e	.	.
2B-y	2f	.	.
2B-y	[2g	.	.
=23	=23	=23	=23
1A	4g]	0r	2r
.	4f	.	.
.	2.f	.	2f
1G	.	.	1g
.	8eL	.	.
.	8dJ	.	.
.	2e	.	.
=24	=24	=24	=24
1F	1f	2r	1a
.	.	2c	.
1r	1r	1d	2b-y
.	.	.	2a
=25	=25	=25	=25
0r	2r	2e	2g
.	2F	2f	2.cc
.	1G	1d	.
.	.	.	8bnXiL
.	.	.	8aJ
.	.	.	2bni
=26	=26	=26	=26
1r	2A	2c	2cc
.	2B-y	1f	2dd
2r	1G	.	4ee
.	.	.	4dd
2C	.	2e	4cc
.	.	.	4b-y
=27	=27	=27	=27
1D	1F	1f	2a
.	.	.	2f
2E	2r	2e	2g
2F	[2c	2c	2a
=28	=28	=28	=28
2D	4c]	1d	2.f
.	8BnXiL	.	.
.	8AJ	.	.
2D	2Bni	.	.
.	.	.	8eL
.	.	.	8dJ
2C	1c	2G	2e
[2F	.	2A	[2a
=29	=29	=29	=29
2F]	2A	2c	4a]
.	.	.	4g
2BB-y	2B-y	2d	1f
1C	1G	[1c	.
.	.	.	2e
=30	=30	=30	=30
1r	0F	2c]	1f
.	.	4B-y	.
.	.	4A	.
[1F	.	1A	2r
.	.	.	2f
=31	=31	=31	=31
1F]	0r	2r	2f
.	.	2c	2f
1r	.	2c	1g
.	.	2c	.
=32	=32	=32	=32
0r	0r	1d	1b-y
.	.	1f	2a
.	.	.	[2cc
=33	=33	=33	=33
2r	1r	2e	2cc]
2C	.	2.g	4b-y
.	.	.	4a
2.C	2r	.	1g
.	.	4f	.
.	2c	4e	.
4D	.	4d	.
=34	=34	=34	=34
2E	2c	4c	2r
.	.	4B-y	.
2F	2c	4A	1f
.	.	4G	.
[1D	1d	[1F	.
.	.	.	2a
=35	=35	=35	=35
1D]	1f	1F]	2a
.	.	.	2b-y
1r	2.e	2r	[1cc
.	.	[2c	.
.	4d	.	.
=36	=36	=36	=36
2r	2.c	2c]	0cc]
2C	.	2e	.
.	8B-yL	.	.
.	8AJ	.	.
2.C	1G	2.e	.
4D	.	4f	.
=37	=37	=37	=37
2E	2r	2g	2r
2F	1F	2f	2cc
[1D	.	4f	2dd
.	.	4e	.
.	2A	4d	[2ff
.	.	4c	.
=38	=38	=38	=38
1D]	2A	2d	4ff]
.	.	.	4ee
.	2B-y	2d	2dd
1r	2c	4e	2cc
.	.	4d	.
.	[2e	4c	[2cc
.	.	4B-y	.
=39	=39	=39	=39
1.C	4e]	1c	4cc]
.	4d	.	4b-y
.	4c	.	4a
.	4B-y	.	4g
.	2.c	2r	2a
2C	.	2G	[2g
.	4B-y	.	.
=40	=40	=40	=40
0C	2.A	1c	4g]
.	.	.	4f
.	.	.	1f
.	8GL	.	.
.	8FJ	.	.
.	1G	1c	.
.	.	.	2e
=41	=41	=41	=41
0r	0F	1r	[0f
.	.	1c	.
=42	=42	=42	=42
1r	0r	2B-y	0f]
.	.	2A	.
1F	.	2.c	.
.	.	4B-y	.
=43	=43	=43	=43
2E	2r	2c	2r
2D	2.f	2d	1a
2.F	.	2A	.
.	4e	.	.
.	2d	[2f	2a
4E	.	.	.
=44	=44	=44	=44
2F	2c	2f]	2a
2G	2B-y	2d	2g
[1D	1A	1d	1a
=45	=45	=45	=45
1D]	2r	2r	1r
.	2d	2f	.
1r	2c	2e	1cc
.	2A	2c	.
=46	=46	=46	=46
0r	2d	2f	2b-y
.	2d	2f	2a
.	1A	2e	2.cc
.	.	2f	.
.	.	.	4b-y
=47	=47	=47	=47
0r	1r	2e	2cc
.	.	2d	2dd
.	2r	2.f	2a
.	2B-y	.	2dd
.	.	4e	.
=48	=48	=48	=48
0r	2A	2f	2cc
.	2G	2g	2.b-y
.	2.B-y	2d	.
.	.	.	4g
.	.	[2f	[2dd
.	4A	.	.
=49	=49	=49	=49
0r	2B-y	2f]	4dd]
.	.	.	4cc
.	2c	2e	2.cc
.	1G	1d	.
.	.	.	8bnXiL
.	.	.	8aJ
.	.	.	2bni
=50	=50	=50	=50
0r	2r	1c	2.cc
.	2c	.	.
.	.	.	8b-yL
.	.	.	8aJ
.	2B-y	2r	2g
.	2A	2f	2a
=51	=51	=51	=51
2r	2.c	2e	2r
2F	.	2c	2a
.	4B-y	.	.
2E	2c	2e	2g
2D	2d	2f	[2f
=52	=52	=52	=52
2.F	2A	2c	4f]
.	.	.	4g
.	1c	1f	1a
4E	.	.	.
2F	.	.	.
2G	2B-y	2d	2g
=53	=53	=53	=53
1D	2A	2d	1a
.	1d	1f	.
1r	.	.	2r
.	2d	2f	[2b-y
=54	=54	=54	=54
0B-y	1d	2.f	2b-]
.	.	.	2b-y
.	.	4e	.
.	2r	4f	2.b-y
.	.	4e	.
.	[2f	4d	.
.	.	4c	8aL
.	.	.	8gJ
=55	=55	=55	=55
1B-y	2f]	1d	2.f
.	2f	.	.
.	.	.	4g
1F	2f	2r	1a
.	2f	[2f	.
=56	=56	=56	=56
1r	2.B-y	2f]	2r
.	.	2f	1b-y
.	4c	.	.
1B-y	1d	2.f	.
.	.	.	2b-y
.	.	4e	.
=57	=57	=57	=57
0B-y	2r	4f	2.b-y
.	.	4e	.
.	1f	4d	.
.	.	4c	8aL
.	.	.	8gJ
.	.	1d	1f
.	2f	.	.
=58	=58	=58	=58
0F	2.f	2c	1r
.	.	2f	.
.	8eL	.	.
.	8dJ	.	.
.	1c	[1f	1cc
=59	=59	=59	=59
0r	0r	2f]	1.cc
.	.	2e	.
.	.	2f	.
.	.	2d	2b-y
=60	=60	=60	=60
1r	1c	2.c	2cc
.	.	.	2a
.	.	4d	.
1c	2.c	2e	[1g
.	.	2f	.
.	4d	.	.
=61	=61	=61	=61
1.c	2e	2g	1g]
.	2f	2c	.
.	1g	2e	2r
2B-y	.	2d	[2dd
=62	=62	=62	=62
2c	1c	2e	4dd]
.	.	.	4cc
2A	.	2f	2.cc
2G	2.d	2g	.
.	.	.	4b-y
2G	.	2g	[2b-y
.	4e	.	.
=63	=63	=63	=63
0F	1f	1.c	2b-]
.	.	.	4a
.	.	.	4g
.	1r	.	1a
.	.	2d	.
=64	=64	=64	=64
0r	1c	1e	2r
.	.	.	2g
.	2c	1r	2a
.	2d	.	2b-y
=65	=65	=65	=65
0r	2.c	0r	2.a
.	4c	.	4a
.	2c	.	2a
.	2B-y	.	2g
=66	=66	=66	=66
1F	1A	2r	1a
.	.	2c	.
2F	1r	2d	1r
2G	.	2e	.
=67	=67	=67	=67
2.F	0r	2A	0r
.	.	2d	.
4F	.	.	.
2F	.	2d	.
2E	.	2c	.
=68	=68	=68	=68
0D	1A	1d	0r
.	2A	2r	.
.	2B-y	2f	.
=69	=69	=69	=69
0r	2A	2f	1r
.	2G	2g	.
.	2A	1f	1cc
.	2F	.	.
=70	=70	=70	=70
0r	2c	2e	2cc
.	2B-y	2d	2dd
.	1A	4e	1cc
.	.	4d	.
.	.	4e	.
.	.	4f	.
=71	=71	=71	=71
0r	1r	2g	2b-y
.	.	2.f	2a
.	1c	.	1g
.	.	8eL	.
.	.	8dJ	.
.	.	2e	.
=72	=72	=72	=72
0r	2d	2f	2f
.	2d	2d	2f
.	1c	2.e	2.g
.	.	4f	4a
=73	=73	=73	=73
0r	2B-y	2g	2b-y
.	2A	2c	1cc
.	1G	2d	.
.	.	2d	2bnXi
=74	=74	=74	=74
1c	1A	2c	2cc
.	.	2e	2a
2c	[1F	1f	2cc
2d	.	.	2f
=75	=75	=75	=75
1c	1F]	2.f	2r
.	.	.	2f
.	.	4e	.
2B-y	2r	2d	2g
2A	2c	[2c	2a
=76	=76	=76	=76
1G	2d	2c]	1b-y
.	2e	2B-y	.
2F	1f	2c	1a
2F	.	2A	.
=77	=77	=77	=77
2G	2e	2.B-y	2r
1B-y	2.d	.	2f
.	.	4c	.
.	.	4d	2g
.	4c	4e	.
2A	[2c	[2f	2a
=78	=78	=78	=78
1G	2c]	4f]	1b-y
.	.	8eL	.
.	.	8dJ	.
.	2B-y	2e	.
1F	2.c	1f	2a
.	.	.	[2cc
.	4B-y	.	.
=79	=79	=79	=79
2r	4A	2.c	4cc]
.	4G	.	4b-y
2F	2F	.	4a
.	.	4B-y	4g
1F	1c	4A	2f
.	.	4G	.
.	.	2F	[2a
=80	=80	=80	=80
1D	1F	2A	4a]
.	.	.	4g
.	.	2B-y	1f
1C	1G	1c	.
.	.	.	2e
=81	=81	=81	=81
2r	2F	2r	1f
2F	2A	2c	.
[1F	1c	[1f	2r
.	.	.	2a
=82	=82	=82	=82
1F]	2.A	2f]	1cc
.	.	4e	.
.	4G	4d	.
1F	4A	2c	1cc
.	4B-y	.	.
.	[2c	2A	.
=83	=83	=83	=83
1D	2c]	4A	1dd
.	.	4G	.
.	4BnXi	4F	.
.	4A	4E	.
1D	1Bni	2F	1dd
.	.	2F	.
=84	=84	=84	=84
0C	0c	2G	1ee
.	.	2.g	.
.	.	.	2r
.	.	4f	.
.	.	2e	2cc
=85	=85	=85	=85
1.G	2r	2d	2.dd
.	2B-y	1g	.
.	.	.	4cc
.	2.d	.	2b-y
2D	.	2f	[2a
.	4c	.	.
=86	=86	=86	=86
2E	2B-y	1e	4a]
.	.	.	4g
2C	2c	.	1g
1D	1A	[1d	.
.	.	.	2f#i
=87	=87	=87	=87
0G	0G	2d]	1g
.	.	4c	.
.	.	4B-y	.
.	.	1B-y	2r
.	.	.	2g
=88	=88	=88	=88
0r	0r	2r	2.g
.	.	2c	.
.	.	.	4a
.	.	2d	2b-y
.	.	2e	2cc
=89	=89	=89	=89
0r	2r	1f	0a
.	2F	.	.
.	2.F	2r	.
.	.	2c	.
.	4G	.	.
=90	=90	=90	=90
1r	2A	2c	1f
.	2B-y	2d	.
2r	1G	[1e	2g
2C	.	.	[2cc
=91	=91	=91	=91
2.C	2r	1e]	2cc]
.	2c	.	4b-y
4D	.	.	4a
2E	4c	2r	2g
.	4B-y	.	.
2F	4A	2c	[2a
.	4G	.	.
=92	=92	=92	=92
1D	1F	1d	2a]
.	.	.	4g
.	.	.	4f
1r	[1c	[1e	1g
=93	=93	=93	=93
0r	1c]	1e]	2r
.	.	.	2g
.	1r	2r	2.g
.	.	2c	.
.	.	.	4a
=94	=94	=94	=94
0r	1r	2d	2b-y
.	.	2e	2cc
.	2r	1f	[1a
.	2F	.	.
=95	=95	=95	=95
0r	2.F	2r	1a]
.	.	2c	.
.	4G	.	.
.	2A	1d	1f
.	2B-y	.	.
=96	=96	=96	=96
2r	1G	0e	2g
2C	.	.	1cc
2.C	2r	.	.
.	2c	.	4b-y
4D	.	.	4a
=97	=97	=97	=97
2E	4c	2r	2g
.	4B-y	.	.
2F	4A	2c	1a
.	4G	.	.
1D	1F	1d	.
.	.	.	4g
.	.	.	4f
=98	=98	=98	=98
2r	1c	1e	0g
2C	.	.	.
1C	2r	2r	.
.	2G	2e	.
=99	=99	=99	=99
2G	2B-y	2e	2r
2A	2c	2f	2a
1G	2d	2g	1b-y
.	[2G	[2g	.
=100	=100	=100	=100
1C	2G]	4g]	1cc
.	.	4f	.
.	2.c	2e	.
1r	.	1d	1dd
.	8BnXiL	.	.
.	8AJ	.	.
.	2Bni	.	.
=101	=101	=101	=101
2r	2c	2.c	1.ee
2C	1g	.	.
.	.	4d	.
1C	.	4e	.
.	.	4f	.
.	4f	[2g	4dd
.	4e	.	4cc
=102	=102	=102	=102
2G	2d	2g]	2bnXi
2A	2c	2f	1cc
1G	1d	1g	.
.	.	.	2bni
=103	=103	=103	=103
0Cl	0cl	0el	0ccl
=104||	=104||	=104||	=104||
*M2/1	*M2/1	*M2/1	*M2/1
*met(C|)	*met(C|)	*met(C|)	*met(C|)
!!section: Crucificxus
!!!OMD: Crucificxus
0F	0r	0r	0r
=105	=105	=105	=105
1F	0c	0r	0r
1F	.	.	.
=106	=106	=106	=106
2C	1c	0r	0r
2F	.	.	.
2E	1c	.	.
2F	.	.	.
=107	=107	=107	=107
2D	2F	0f	0r
2BB-y	1B-y	.	.
1F	.	.	.
.	2A	.	.
=108	=108	=108	=108
1BB-y	1B-y	1f	0r
1F	2r	1f	.
.	[2A	.	.
=109	=109	=109	=109
2F	2A]	2c	0cc
2F	2F	1f	.
1C	1c	.	.
.	.	2e	.
=110	=110	=110	=110
0r	4F	1f	1cc
.	4G	.	.
.	4A	.	.
.	4B-y	.	.
.	1c	2e	1cc
.	.	2c	.
=111	=111	=111	=111
0r	2r	1d	0f
.	2B-y	.	.
.	2B-y	2r	.
.	2B-y	2f	.
=112	=112	=112	=112
2r	1F	2f	[0cc
2F	.	2f	.
2F	2r	1c	.
2F	2c	.	.
=113	=113	=113	=113
1C	2c	2r	0cc]
.	2c	2c	.
2r	2F	2f	.
2C	2G	2e	.
=114	=114	=114	=114
2F	2A	2f	[0cc
2E	2G	2g	.
[1F	2F	[1a	.
.	2A	.	.
=115	=115	=115	=115
2F]	1.c	2a]	0cc]
2G	.	1g	.
1A	.	.	.
.	2d	2f#i	.
=116	=116	=116	=116
0G	2e	0g	[0b-y
.	2d	.	.
.	2r	.	.
.	2d	.	.
=117	=117	=117	=117
2r	2d	0r	0b-]
2G	2d	.	.
2G	2.e	.	.
2G	.	.	.
.	4d	.	.
=118	=118	=118	=118
2.A	2c	2r	[0a
.	2B-y	2c	.
4G	.	.	.
2F	1A	2c	.
2E	.	2c	.
=119	=119	=119	=119
1D	2r	2.d	1a]
.	2d	.	.
.	.	4c	.
2r	2d	2.B-y	[1g
2G	2G	.	.
.	.	4A	.
=120	=120	=120	=120
2G	2d	1G	0g]
2C	2.e	.	.
1G	.	1r	.
.	4d	.	.
.	4c	.	.
.	4B-y	.	.
=121	=121	=121	=121
2F	4A	0r	0r
.	4G	.	.
2E	2.c	.	.
1D	.	.	.
.	8BnXiL	.	.
.	8AJ	.	.
.	2Bni	.	.
=122	=122	=122	=122
1C	1c	2r	0r
.	.	2c	.
1F	2r	2c	.
.	2c	2F	.
=123	=123	=123	=123
1r	2c	2.c	0r
.	2F	.	.
.	.	4d	.
2r	1c	4e	.
.	.	4f	.
2C	.	[2g	.
=124	=124	=124	=124
1D	2B-y	4g]	1r
.	.	4f	.
.	2A	1f	.
2E	1G	.	1g
2C	.	2e	.
=125	=125	=125	=125
2F	1F	2.f	1.a
2D	.	.	.
.	.	8eL	.
.	.	8dJ	.
2.F	2r	2c	.
.	2F	2d	2b-y
8EL	.	.	.
8DJ	.	.	.
=126	=126	=126	=126
1C	1G	1e	[0cc
1F	2A	1f	.
.	2F	.	.
=127	=127	=127	=127
1F	2c	2r	0cc]
.	2A	2c	.
1C	2.c	2.e	.
.	4B-y	8dL	.
.	.	8cJ	.
=128	=128	=128	=128
2r	1G	2d	1r
2C	.	2c	.
2.D	[1F	2r	[1a
.	.	2A	.
4E	.	.	.
=129	=129	=129	=129
2F	1F]	2.A	0a_
2G	.	.	.
.	.	4B-y	.
2.A	2r	1c	.
.	2F	.	.
4B-y	.	.	.
=130	=130	=130	=130
1c	2.A	2r	1a]
.	.	2c	.
.	4B-y	.	.
2r	2.c	4c	1g
.	.	4d	.
[2C	.	4e	.
.	4d	4f	.
=131	=131	=131	=131
4C]	2e	2g	[0g
4D	.	.	.
4E	2.c	4f	.
4F	.	4e	.
1G	.	1d	.
.	8BnXiL	.	.
.	8AJ	.	.
.	2Bni	.	.
=132	=132	=132	=132
0C	1c	2r	0g]
.	.	2c	.
.	1r	2c	.
.	.	2G	.
=133	=133	=133	=133
2r	1r	2.c	0r
2F	.	.	.
.	.	4B-y	.
2F	2r	2A	.
2C	2c	2G	.
=134	=134	=134	=134
2.F	1c	1A	0r
4E	.	.	.
2D	2F	2r	.
2C	[2c	2e	.
=135	=135	=135	=135
1D	2c]	1.f	0r
.	2B-y	.	.
1r	2A	.	.
.	2G	2e	.
=136	=136	=136	=136
1F	0A	2d	0r
.	.	2c	.
2F	.	[1d	.
2D	.	.	.
=137	=137	=137	=137
2.G	2r	1d]	0r
.	2B-y	.	.
4F	.	.	.
2E-X	2B-y	1r	.
2D	2G	.	.
=138	=138	=138	=138
0C	2.c	2r	0cc
.	.	2e	.
.	4B-y	.	.
.	2A	2e	.
.	2G	2c	.
=139	=139	=139	=139
0r	1F	1.f	1cc
.	[1f	.	1cc
.	.	2e	.
=140	=140	=140	=140
0r	2f]	2d	0f
.	2e	2c	.
.	1d	1B-y	.
=141	=141	=141	=141
2r	1c	2A	[0cc
2C	.	2G	.
2.F	2r	2.A	.
.	2A	.	.
4F	.	4A	.
=142	=142	=142	=142
1C	2.c	2G	0cc]
.	.	2c	.
.	4c	.	.
1r	[1F	2.f	.
.	.	4f	.
=143	=143	=143	=143
2r	2F]	1.c	[0cc
2C	2G	.	.
2.F	2A	.	.
.	2B-y	2d	.
4F	.	.	.
=144	=144	=144	=144
2.C	1c	2e	0cc]
.	.	2f	.
4D	.	.	.
2E	2.G	1g	.
2F	.	.	.
.	4A	.	.
=145	=145	=145	=145
1G	2B-y	2r	0b-y
.	2c	2d	.
2r	2d	2f	.
2G	2B-y	2e	.
=146	=146	=146	=146
2.B-y	1d	2d	0b-y
.	.	2c	.
4A	.	.	.
2G	2r	1B-y	.
2G	2d	.	.
=147	=147	=147	=147
2.F	1.f	1c	[0a
4G	.	.	.
1A	.	2r	.
.	2e	2c	.
=148	=148	=148	=148
1D	2d	2.f	1a]
.	2c	.	.
.	.	4e	.
2G	1B-y	2d	[1g
2G	.	2d	.
=149	=149	=149	=149
[0C	2r	1c	0g]
.	2G	.	.
.	1c	2r	.
.	.	2c	.
=150	=150	=150	=150
1C]	2r	2.c	0r
.	2e	.	.
.	.	4d	.
2r	2c	2e	.
[2B-y	2d	2f	.
=151	=151	=151	=151
2B-]	2B-y	1d	0r
2G	2B-y	.	.
1A	2.c	2r	.
.	.	2c	.
.	4B-y	.	.
=152	=152	=152	=152
1F	2A	2.c	0r
.	2F	.	.
.	.	4d	.
2r	1c	2e	.
2F	.	2f	.
=153	=153	=153	=153
2.G	2r	1d	1r
.	2B-y	.	.
4F	.	.	.
2E	2.c	[1c	1g
2C	.	.	.
.	4B-y	.	.
=154	=154	=154	=154
1.F	2A	1c]	1.a
.	2F	.	.
.	[1c	2r	.
4E	.	2f	2b-y
4D	.	.	.
=155	=155	=155	=155
1C	2c]	2.g	[0cc
.	2G	.	.
.	.	4g	.
1r	2.c	2e	.
.	.	2c	.
.	4B-y	.	.
=156	=156	=156	=156
2r	2A	1f	0cc]
2D	2F	.	.
2.A	1c	2r	.
.	.	2e	.
4G	.	.	.
=157	=157	=157	=157
2F	1r	1.f	1r
2D	.	.	.
1A	2r	.	[1a
.	2c	2e	.
=158	=158	=158	=158
1D	2.f	2d	1a]
.	.	2d	.
.	4e	.	.
1r	2d	2f	[1a
.	2A	2c	.
=159	=159	=159	=159
2r	2.d	2.f	1a]
2D	.	.	.
.	4c	4e	.
2.G	2.B-y	2d	1g
.	.	2B-y	.
4F	4A	.	.
=160	=160	=160	=160
2E	2G	1e-i	[0gl
2C	2.c	.	.
1G	.	1d	.
.	8BnXiL	.	.
.	8AJ	.	.
.	2Bni	.	.
=161	=161	=161	=161
0Cl	0cl	0el	0g]
=162||	=162||	=162||	=162||
!!section: Et in Spiritum
!!!OMD: Et in Spiritum
*M2/1	*M2/1	*M2/1	*M2/1
*met(C|)	*met(C|)	*met(C|)	*met(C|)
0r	0r	1.f	1r
.	.	.	[1cc
.	.	2c	.
=163	=163	=163	=163
0r	0r	2f	2cc]
.	.	2f	2a
.	.	2e	2cc
.	.	2c	2cc
=164	=164	=164	=164
0r	0r	2d	2b-y
.	.	2e	2cc
.	.	2f	1dd
.	.	2g	.
=165	=165	=165	=165
1r	2r	2c	2ee
.	1c	2e	2ee
[1F	.	[1f	1cc
.	2A	.	.
=166	=166	=166	=166
2F]	2c	1f]	2r
2D	2B-y	.	2dd
2F	2.A	2r	2.cc
2F	.	2c	.
.	4B-y	.	8b-yL
.	.	.	8aJ
=167	=167	=167	=167
2E	2c	2e	2g
2F	2A	2e	1cc
1G	2B-y	1d	.
.	2G	.	2bnXi
=168	=168	=168	=168
2A	2r	2c	1cc
2A	1c	1f	.
1F	.	.	2r
.	2A	2f	[2cc
=169	=169	=169	=169
0r	1c	1e	2cc]
.	.	.	2cc
.	2B-y	2d	2dd
.	2c	[2g	2cc
=170	=170	=170	=170
0r	1d	2g]	2b-y
.	.	2f#i	2a
.	1e-i	2g	1g
.	.	2c	.
=171	=171	=171	=171
1.F	1c	1f	2r
.	.	.	1f
.	1A	2r	.
2D	.	[2f	[2a
=172	=172	=172	=172
1F	2A	2f]	4a]
.	.	.	4g
.	1c	2f	4a
.	.	.	4b-y
2E	.	2g	2cc
2F	2c	2f	2a
=173	=173	=173	=173
1G	1B-y	2e	1b-y
.	.	2d	.
1A	1F	2c	4a
.	.	.	4g
.	.	[2f	4a
.	.	.	4b-y
=174	=174	=174	=174
0F	0r	4f]	4cc
.	.	4e	4b-y
.	.	2d	2.b-y
.	.	1c	.
.	.	.	8aL
.	.	.	8gJ
.	.	.	2a
=175	=175	=175	=175
0r	1.B-y	1d	0b-y
.	.	1r	.
.	2B-y	.	.
=176	=176	=176	=176
0r	1B-y	1.f	1r
.	1F	.	[1cc
.	.	2f	.
=177	=177	=177	=177
1.F	1r	1f	2cc]
.	.	.	2cc
.	[1c	1c	1cc
2F	.	.	.
=178	=178	=178	=178
1F	2c]	1r	1f
.	2d	.	.
[1C	2.e-i	2.c	[1g
.	4d	4d	.
=179	=179	=179	=179
1C]	2c	2e-i	2g]
.	2c	2e-i	2a
[1G	1B-y	2.d	2.b-y
.	.	4c	4a
=180	=180	=180	=180
2G]	1r	1B-y	2g
2A	.	.	2g
2B-y	[1d	1r	2f
2A	.	.	2a
=181	=181	=181	=181
2G	2d]	2r	2.b-y
2G	2e	2B-y	.
.	.	.	8aL
.	.	.	8gJ
[1F	2.f	2.c	[1a
.	4e	4B-y	.
=182	=182	=182	=182
0F_	2d	0A	0a]
.	2d	.	.
.	2c	.	.
.	2c	.	.
=183	=183	=183	=183
1F]	2.f	1r	2r
.	.	.	2f
.	4e	.	.
1r	1d	1B-y	2.b-y
.	.	.	4a
=184	=184	=184	=184
0r	1r	2.c	2g
.	.	.	2cc
.	.	4d	.
.	2r	2e	4cc
.	.	.	4b-y
.	2F	2f	4a
.	.	.	4g
=185	=185	=185	=185
1BB-y	2.B-y	1d	1f
.	4A	.	.
2.C	2G	1r	1r
.	2c	.	.
4D	.	.	.
=186	=186	=186	=186
2E	4c	0r	1r
.	4B-y	.	.
2F	4A	.	.
.	4G	.	.
1D	1F	.	2r
.	.	.	2f
=187	=187	=187	=187
0r	0r	1B-y	2.b-y
.	.	.	4a
.	.	2.c	2g
.	.	.	2cc
.	.	4d	.
=188	=188	=188	=188
1r	2r	2e	4cc
.	.	.	4b-y
.	2F	2f	4a
.	.	.	4g
1BB-y	2.B-y	1d	2f
.	.	.	2f
.	4A	.	.
=189	=189	=189	=189
2.C	2G	2c	2.e
.	2.c	2G	.
4D	.	.	4f
2E	.	2r	2g
.	4B-y	.	.
2F	4A	2F	[2a
.	4G	.	.
=190	=190	=190	=190
1D	1F	2A	4a]
.	.	.	4g
.	.	2B-y	1f
1C	1G	2c	.
.	.	2c	2e
=191	=191	=191	=191
[0F	1F	4c	1f
.	.	4B-y	.
.	.	4A	.
.	.	4G	.
.	1r	[1A	1r
=192	=192	=192	=192
1F]	2.c	1A]	2.a
.	4d	.	4b-y
1r	2e	1r	2cc
.	[2f	.	[2dd
=193	=193	=193	=193
0r	4f]	1r	4dd]
.	4e	.	4cc
.	4d	.	1cc
.	4c	.	.
.	1d	[1f	.
.	.	.	2bnXi
=194	=194	=194	=194
2.F	1A	2f]	1cc
.	.	2f	.
4G	.	.	.
2A	1r	2f	1r
[2B-y	.	[2g	.
=195	=195	=195	=195
4B-]	0r	4g]	1r
4A	.	4f	.
4G	.	1f	.
4F	.	.	.
1G	.	.	2.g
.	.	2e	.
.	.	.	4a
=196	=196	=196	=196
1D	2.d	1f	2.b-y
.	4e	.	8aL
.	.	.	8gJ
1r	2.f	2.d	2f
.	.	.	2b-y
.	8eL	4e	.
.	8dJ	.	.
=197	=197	=197	=197
2.F	1c	2.f	2a
.	.	.	2.a
4G	.	8eL	.
.	.	8dJ	.
2A	2c	2c	.
.	.	.	4g
[2B-y	[2d	2f	4f
.	.	.	4e
=198	=198	=198	=198
4B-]	4d]	1.d	2f
4A	4c	.	.
4G	4B-y	.	1a
4F	4A	.	.
1G	1B-y	.	.
.	.	2e	2g
=199	=199	=199	=199
0D	0A	1f	1a
.	.	2r	2r
.	.	2d	2a
=200	=200	=200	=200
1r	1r	2d	2b-y
.	.	2e	2g
2r	2r	1f	2a
2D	2A	.	2f
=201	=201	=201	=201
2D	2B-y	2f	2r
2E	2G	4e	2g
.	.	4d	.
1F	2A	2c	4f
.	.	.	4e
.	2F	2A	4f
.	.	.	4g
=202	=202	=202	=202
2F	1r	2A	2a
2G	.	2B-y	4g
.	.	.	4f
2A	2r	2c	1e
2A	2A	2c	.
=203	=203	=203	=203
1F	2A	2c	0r
.	2B-y	2d	.
1r	1c	2e	.
.	.	2e	.
=204	=204	=204	=204
0r	2c	2c	2r
.	2d	4B-y	2f
.	.	4A	.
.	2e	2G	2g
.	2e	2c	2g
=205	=205	=205	=205
1r	2c	2r	1a
.	2F	2f	.
2r	2c	2e	2a
2B-y	2d	2d	2b-y
=206	=206	=206	=206
2A	2c	2e	2cc
2G	2r	2e	2b-y
[1A	2r	1c	1a
.	2f	.	.
=207	=207	=207	=207
2A]	2e	0r	2r
2B-y	2d	.	2b-y
1c	2e	.	2a
.	2e	.	2g
=208	=208	=208	=208
0r	2c	1r	2a
.	2d	.	2a
.	2d	2r	2f
.	2d	2d	2a
=209	=209	=209	=209
0r	1G	1g	4b-y
.	.	.	4cc
.	.	.	4dd
.	.	.	4ee-i
.	2r	2f	2dd
.	2c	2e	[2cc
=210	=210	=210	=210
2r	2f	1d	4cc]
.	.	.	8bnXiL
.	.	.	8aJ
2G	2d	.	2bni
1c	2.e	2r	2cc
.	.	2c	2ee
.	8dL	.	.
.	8eJ	.	.
=211	=211	=211	=211
2B-y	4f	2d	2dd
.	4e	.	.
2A	4d	2f	1cc
.	4c	.	.
1G	1d	1g	.
.	.	.	2bnXi
=212	=212	=212	=212
0r	0c	1e	2cc
.	.	.	2g
.	.	2r	2.cc
.	.	2c	.
.	.	.	4b-y
=213	=213	=213	=213
0r	1r	1f	4a
.	.	.	4g
.	.	.	1cc
.	2r	1d	.
.	2G	.	2bnXi
=214	=214	=214	=214
2r	2.c	1c	0cc
2C	.	.	.
.	4B-y	.	.
1F	4A	2r	.
.	4G	.	.
.	[2c	2c	.
=215	=215	=215	=215
1D	4c]	2f	1r
.	8BnXiL	.	.
.	8AJ	.	.
.	2Bni	2f	.
1C	1c	1e	2r
.	.	.	2g
=216	=216	=216	=216
0r	2r	1c	2cc
.	2c	.	2cc
.	2f	2r	2.a
.	2f	[2d	.
.	.	.	8gL
.	.	.	8aJ
=217	=217	=217	=217
1r	1d	4d]	4b-y
.	.	4c	4a
.	.	2.f	4g
.	.	.	4f
2r	2.c	.	1g
.	.	8eL	.
.	.	8dJ	.
2C	.	2e	.
.	4B-y	.	.
=218	=218	=218	=218
2F	4A	2c	2f
.	4G	.	.
2F	2c	2A	2a
1D	4F	1d	4b-y
.	4G	.	4a
.	4A	.	4g
.	4B-y	.	4f
=219	=219	=219	=219
0C	2.c	2G	4e
.	.	.	4d
.	.	2.c	2.f
.	8B-yL	.	.
.	8AJ	.	.
.	1G	.	.
.	.	4B-y	8eL
.	.	.	8dJ
.	.	2c	2e
=220	=220	=220	=220
0r	0F	1A	1f
.	.	2r	1a
.	.	2f	.
=221	=221	=221	=221
0r	0r	2e	2g
.	.	2d	2b-y
.	.	2f	2a
.	.	2e	2g
=222	=222	=222	=222
0r	1r	2d	2f
.	.	2c	2cc
.	2r	2d	2cc
.	2f	2d	2bnXi
=223	=223	=223	=223
1A	2e	1c	1cc
.	2c	.	.
2G	2e	1r	1r
2B-y	2d	.	.
=224	=224	=224	=224
2A	2c	0r	0r
2G	2e	.	.
2F	2f	.	.
2c	2e	.	.
=225	=225	=225	=225
2c	1d	1r	0r
2BnXi	.	.	.
1c	1c	1e	.
=226	=226	=226	=226
0r	0r	2d	1a
.	.	2f	.
.	.	2e	2g
.	.	[2g	[2b-y
=227	=227	=227	=227
0r	0r	4g]	2b-]
.	.	4f	.
.	.	2.f	2a
.	.	.	1g
.	.	8eL	.
.	.	8dJ	.
.	.	2e	.
=228	=228	=228	=228
1r	2r	2f	1f
.	2d	2f	.
1A	2c	2e	1r
.	2f	2c	.
=229	=229	=229	=229
2G	2e	2g	2r
1B-y	2.d	4f	2f
.	.	4e	.
.	.	4d	2g
.	4c	4c	.
2A	[2f	[2c	2a
=230	=230	=230	=230
1G	2f]	2c]	2b-y
.	2e	2B-y	2b-y
1F	2.f	2c	[1a
.	.	[2f	.
.	4e	.	.
=231	=231	=231	=231
2r	2d	2f]	1a]
2A	2c	1e	.
2G	2.B-y	.	2r
[2B-y	.	[2d	2f
.	4c	.	.
=232	=232	=232	=232
2B-]	2d	4d]	2g
.	.	4c	.
2A	1c	2.f	2a
1G	.	.	1b-y
.	.	8eL	.
.	.	8dJ	.
.	2B-y	2e	.
=233	=233	=233	=233
[0F	[0c	0f	1a
.	.	.	2r
.	.	.	2f
=234	=234	=234	=234
0F]	0c]	2r	2cc
.	.	2c	2cc
.	.	2f	2a
.	.	2f	2a
=235	=235	=235	=235
1r	2r	2e	1g
.	2c	2e	.
1F	2f	1c	1r
.	2f	.	.
=236	=236	=236	=236
2B-y	2d	1r	2r
2B-y	2d	.	2f
2A	[1c	2r	2cc
2A	.	2c	2cc
=237	=237	=237	=237
1F	1c]	2f	2a
.	.	2f	2a
1r	2r	2e	1g
.	2c	2e	.
=238	=238	=238	=238
1F	2f	1c	0r
.	2f	.	.
2B-y	2d	1r	.
2B-y	2d	.	.
=239	=239	=239	=239
2A	1c	1r	2r
2A	.	.	2cc
[1F	2r	2r	2.cc
.	2c	[2f	.
.	.	.	4b-y
=240	=240	=240	=240
2F]	1c	2f]	2a
2C	.	2e	2.g
2D	2A	1d	.
.	.	.	4f
2BB-y	2B-y	.	[2f
=241	=241	=241	=241
1C	1G	1c	2f]
.	.	.	2e
1F	1F	1c	2f
.	.	.	2cc
=242	=242	=242	=242
2r	2r	1.f	2.cc
1F	2c	.	.
.	.	.	4b-y
.	1c	.	2a
2C	.	2e	[2g
=243	=243	=243	=243
2D	2A	1d	4g]
.	.	.	4f
2BB-y	2B-y	.	1f
1C	1G	1c	.
.	.	.	2e
=244	=244	=244	=244
0Fl	0Fl	0cl	0fl
==	==	==	==
*-	*-	*-	*-
!!!system-decoration: s1,s2,s3,s4
!!!RDF**kern: i = editorial accidental
!!!RDF**kern: l = terminal long
!!!ENC: Maura Sugg
!!!END: 2026/5/13
!!!EED: Benjamin Ory
!!!EEV: 2026/05/26
!!!YEC: Copyright 2026 Irene Holzer, All Rights Reserved
!!!ONB: Translated from MusicXML on 2026/05/26
!!!verovio: header encoded
!!!header-left: Edited by Irene Holzer\n
!!!header-right:
!!!header-center:
!!muse2ps: T^@{OPR}^u^@{ONM}{. }@{OTL}^C^@{COM}^i2I150v90,90,90,120c120z18l2770t130
